X: 133
T: Dunsky, a Reel
C: attr. John French (1753-1803)
R: reel
B: "John French Collection", John French ed. p.13 #3
S: http://www.heallan.com/french.asp
Z: 2012 John Chambers <jc:trillian.mit.edu>
N: The f-sharp key signature is odd, since all the f's are natural.
M: C
L: 1/8
K: Ador
c |\
Aece BG-GB | AeBe ceAa | egdg BGdB | ced=f eA-A :|
B |\
Aaeg BG-GB | AaBa caAa | ecgc BGdB | cedB cA-AB |
Aaeg | BG-GB | AaBa caAa | gbeg BGdB | ced=f eA-A |]

%%sep 2 1 500
%%sep 1 1 500

